!!!OTL: 5a. Butzemann.
!!!ARE: Europa, Mitteleuropa, Deutschland, Thueringen; Sachsen
!!!SCT: E0005
!!!TXL: @@DE
!!!YEM: Copyright 1995, estate of Helmut Schaffrath.
**kern	**text
*ICvox	*
*M2/4	*
*k[f#]	*
*D:	*
!LO:TX:a:t=Etwas lebhaft.	!
!LO:TX:a:t=Aus Kindermund in Thüringen und Sachſen.	!
{8d	Es
=1	=1
4g	geht
4b	ein
=2	=2
4dd	Bu-
4gg	-Ba-
=3	=3
8.ee	-Bu-
16ee	-tʒe-
8ee}	-mann
{8ee	in
=4	=4
8dd	un-
8cc	-ſerm
8b	Haus
8a	her-
=5	=5
8.g	-um,
16b	di-
8dd}	-dum!
{8d	Es
=6	=6
4g	geht
4b	ein
=7	=7
4dd	Bu-
4gg	-Ba-
=8	=8
8.ee	-Bu-
16ee	-tʒe-
8ee}	-mann
{8ee	in
=9	=9
8dd	un-
8cc	-ſerm
8b	Haus
8a	her-
=10	=10
4g	-rum.
8r}	.
{8b	Er
=11	=11
8a	rüt-
8b	-telt
8cc	ſich,
8a	er
=12	=12
8b	ſchüt-
8cc	-telt
8dd}	ſich,
{8b	er
=13	=13
8a	wirft
8b	ſein
8cc	Säck-
8a	-chen
=14	=14
8b	hin-
8cc	-ter
8dd;}	ſich.
{8d	Es
=15	=15
4g	geht
4b	ein
=16	=16
4dd	Bu-
4gg	-Ba-
=17	=17
8.ee	-Bu-
16ee	-tʒe-
8ee}	-mann
{8ee	in
=18	=18
8dd	un-
8cc	-ſerm
8b	Haus
8a	her-
=19	=19
4g	-um.
8r}	.
==	==
!!!AGN: Sage, Maerchen -, Zauber - Lied, Kinder - Lied, Ballade ?
!!!ONB: ESAC (Essen Associative Code) Database: ERK1
!!!AMT: simple duple
!!!AIN: vox
!!!EED: Helmut Schaffrath
!!!EEV: 1.0
!!!GTL: Nachtklaenge der Goettersage (Zaubermaeren)
!!!URL-scan: https://rosdok.uni-rostock.de/mcrviewer/recordIdentifier/rosdok_ppn745146120/iview2/phys_0087.iview2?x=-4.404412318552431&y=36.514966485090554&scale=0.645690413860662&rotation=0&layout=singlePageLayout&logicalDiv=log_0009
!!!ENC: Anna Maria Matuszewska
!!!EEV: 2024/22/11
*-	*-
